src/core/static/images/favicon.svg

<svg width="39" height="47" viewBox="0 0 39 47" fill="none" xmlns="http://www.w3.org/2000/svg">
<path d="M15.9194 45.803V7.36694" stroke="#B9A67D" stroke-width="1.37111" stroke-linecap="round" stroke-linejoin="round"/>
<path d="M5.40479 11.7612L26.4335 32.79" stroke="#B9A67D" stroke-width="1.37111" stroke-linecap="round" stroke-linejoin="round"/>
<path d="M26.4681 11.7268L19.6673 18.5276M5.3728 32.8221L15.9204 22.2745" stroke="#B9A67D" stroke-width="1.37111" stroke-linecap="round" stroke-linejoin="round"/>
<path d="M30.815 22.2756H1" stroke="#B9A67D" stroke-width="1.37111" stroke-linecap="round" stroke-linejoin="round"/>
<path d="M22.8123 9.2583V15.3806" stroke="#B9A67D" stroke-width="1.37111" stroke-linecap="round" stroke-linejoin="round"/>
<path d="M28.9345 15.3826H22.8123" stroke="#B9A67D" stroke-width="1.37111" stroke-linecap="round" stroke-linejoin="round"/>
<path d="M27.8333 1V9.79489" stroke="#B9A67D" stroke-width="1.37111" stroke-linecap="round" stroke-linejoin="round"/>
<path d="M23.5034 1.83936L27.8311 6.16704" stroke="#B9A67D" stroke-width="1.37111" stroke-linecap="round" stroke-linejoin="round"/>
<path d="M32.1609 1.84155L27.8333 6.16923" stroke="#B9A67D" stroke-width="1.37111" stroke-linecap="round" stroke-linejoin="round"/>
<path d="M38.2104 11.2417H29.4133" stroke="#B9A67D" stroke-width="1.37111" stroke-linecap="round" stroke-linejoin="round"/>
<path d="M37.3711 6.90967L33.0435 11.2395" stroke="#B9A67D" stroke-width="1.37111" stroke-linecap="round" stroke-linejoin="round"/>
<path d="M37.3689 15.5694L33.0413 11.2417" stroke="#B9A67D" stroke-width="1.37111" stroke-linecap="round" stroke-linejoin="round"/>
<path d="M11.5896 8.19775L15.9173 12.5254" stroke="#B9A67D" stroke-width="1.37111" stroke-linecap="round" stroke-linejoin="round"/>
<path d="M20.2493 8.19995L15.9194 12.5276" stroke="#B9A67D" stroke-width="1.37111" stroke-linecap="round" stroke-linejoin="round"/>
<path d="M2.9043 15.3826H9.02444" stroke="#B9A67D" stroke-width="1.37111" stroke-linecap="round" stroke-linejoin="round"/>
<path d="M9.02856 9.26245V15.3826" stroke="#B9A67D" stroke-width="1.37111" stroke-linecap="round" stroke-linejoin="round"/>
<path d="M1.84131 26.6055L6.17113 22.2778" stroke="#B9A67D" stroke-width="1.37111" stroke-linecap="round" stroke-linejoin="round"/>
<path d="M1.84351 17.948L6.17333 22.2757" stroke="#B9A67D" stroke-width="1.37111" stroke-linecap="round" stroke-linejoin="round"/>
<path d="M9.02856 35.2929V29.1707" stroke="#B9A67D" stroke-width="1.37111" stroke-linecap="round" stroke-linejoin="round"/>
<path d="M2.90625 29.1685H9.02854" stroke="#B9A67D" stroke-width="1.37111" stroke-linecap="round" stroke-linejoin="round"/>
<path d="M20.2515 36.3533L15.9216 32.0256" stroke="#B9A67D" stroke-width="1.37111" stroke-linecap="round" stroke-linejoin="round"/>
<path d="M11.5918 36.3514L15.9195 32.0237" stroke="#B9A67D" stroke-width="1.37111" stroke-linecap="round" stroke-linejoin="round"/>
<path d="M28.9368 29.1685H22.8167" stroke="#B9A67D" stroke-width="1.37111" stroke-linecap="round" stroke-linejoin="round"/>
<path d="M22.8123 35.2886V29.1685" stroke="#B9A67D" stroke-width="1.37111" stroke-linecap="round" stroke-linejoin="round"/>
<path d="M29.9971 17.9458L25.6694 22.2735" stroke="#B9A67D" stroke-width="1.37111" stroke-linecap="round" stroke-linejoin="round"/>
<path d="M29.9971 26.6033L25.6672 22.2756" stroke="#B9A67D" stroke-width="1.37111" stroke-linecap="round" stroke-linejoin="round"/>
<path d="M15.9171 12.5254L12.4331 18.7872" stroke="#B9A67D" stroke-width="1.37111" stroke-linecap="round" stroke-linejoin="round"/>
<path d="M15.9174 12.5254L9.02441 15.3826" stroke="#B9A67D" stroke-width="1.37111" stroke-linecap="round" stroke-linejoin="round"/>
<path d="M6.15845 22.2862L12.4203 18.8" stroke="#B9A67D" stroke-width="1.37111" stroke-linecap="round" stroke-linejoin="round"/>
<path d="M6.15845 22.2863L9.01566 15.3933" stroke="#B9A67D" stroke-width="1.37111" stroke-linecap="round" stroke-linejoin="round"/>
<path d="M6.15845 22.2649L12.4203 25.7511" stroke="#B9A67D" stroke-width="1.37111" stroke-linecap="round" stroke-linejoin="round"/>
<path d="M6.15845 22.2649L9.01566 29.1578" stroke="#B9A67D" stroke-width="1.37111" stroke-linecap="round" stroke-linejoin="round"/>
<path d="M15.9171 32.0257L12.4331 25.7639" stroke="#B9A67D" stroke-width="1.37111" stroke-linecap="round" stroke-linejoin="round"/>
<path d="M15.9174 32.0257L9.02441 29.1685" stroke="#B9A67D" stroke-width="1.37111" stroke-linecap="round" stroke-linejoin="round"/>
<path d="M15.8958 32.0257L19.3819 25.7639" stroke="#B9A67D" stroke-width="1.37111" stroke-linecap="round" stroke-linejoin="round"/>
<path d="M15.8958 32.0257L22.7908 29.1685" stroke="#B9A67D" stroke-width="1.37111" stroke-linecap="round" stroke-linejoin="round"/>
<path d="M25.6566 22.2649L19.3948 25.7511" stroke="#B9A67D" stroke-width="1.37111" stroke-linecap="round" stroke-linejoin="round"/>
<path d="M25.6565 22.2649L22.7993 29.1578" stroke="#B9A67D" stroke-width="1.37111" stroke-linecap="round" stroke-linejoin="round"/>
</svg>

<svg width="39" height="47" fill="none" xmlns="http://www.w3.org/2000/svg"><path d="M15.92 45.803V7.367M5.405 11.761 26.433 32.79m.035-21.063-6.8 6.8M5.372 32.823 15.92 22.274m14.895.002H1M22.812 9.258v6.123m6.122.002h-6.122M27.833 1v8.795m-4.33-7.955 4.328 4.327m4.329-4.325-4.327 4.327m10.377 5.073h-8.797m7.958-4.332-4.328 4.33m4.326 4.33-4.328-4.328M11.59 8.198l4.327 4.327M20.25 8.2l-4.33 4.328M2.904 15.383h6.12m.005-6.121v6.12M1.841 26.605l4.33-4.327m-4.327-4.33 4.33 4.328m2.855 13.017V29.17m-6.123-.001H9.03m11.222 7.184-4.33-4.327m-4.33 4.325 4.327-4.327m13.018-2.855h-6.12m-.005 6.12v-6.12m7.185-11.223-4.328 4.327m4.328 4.33-4.33-4.327m-9.75-9.751-3.484 6.262m3.484-6.262-6.893 2.858m-2.866 6.903L12.42 18.8m-6.262 3.486 2.858-6.893m-2.858 6.872 6.262 3.486m-6.262-3.486 2.858 6.893m6.901 2.868-3.484-6.262m3.484 6.262-6.893-2.858m6.872 2.858 3.486-6.262m-3.486 6.262 6.895-2.858m2.866-6.903-6.262 3.486m6.262-3.486-2.858 6.893" stroke="#B9A67D" stroke-width="1.371" stroke-linecap="round" stroke-linejoin="round"/></svg>
